X:29
T:Valse Du Depart
C:Traditional
R:Waltz
M:5/4
L:1/4
K:Am
E|:"Am"ABc2c|"G"dB"Am"c2e|"F"dc"E"B2E|1cB"Am"A2E:|2cB"Am"A2a||
"G"gf"C"e2A|cd"E"e2d/c/|1,3B/c/d"Am"ece|"G"dg"Am"e2a:|
|2B/c/d"Am"ecA|"G"BG"Am"A2a:|4B/c/d"Am"ecA|"G"BG"Am"A|]
